X:313
T: ES SOLL SICH JA KEINER MIT DER LIEBE ABGEBEN
N: Z0310A
O: Europa, Mitteleuropa, Deutschland, Thueringen
R: Lyrisches Lied, Romanze, verlassene Liebe, Tod
M: 3/4
L: 1/8
K: G
D2 | G2G2A2 | B2B2dc | B2B2A2 | G2G2
D2 | G2G2A2 | B2B2dc | B2B2A2 | G2G2
d2 | g2gfed | ^cBA2g2 | fed2^c2 | d4
c2 | B2B2A2 | G4
dc | B2B2A2 | G4

@@@ Tune index: 10071
